icons/Color/scalable/go-home.svg

<svg enable-background="new 0 0 128 129.396" height="16" viewBox="0 0 16 16" width="16" xmlns="http://www.w3.org/2000/svg"><g transform="translate(-1.305607 2.264427)"><path d="m8.5121608.68080448h1.9879612c.280213 0 4.805485 5.73497232 4.805485 6.05476852l-.02448 6.174769c0 .319798-.126383.648944-.406596.648944l-10.8914593.0046c-.2802131 0-.5057994-.257454-.5057994-.577252l.018847-6.5337308c0-.3197962 4.7358313-5.77212272 5.0160435-5.77212272z" fill="#eeeeec" stroke="#757575" stroke-width=".343326"/><path d="m17.305765 13.735573h-15.8829106v-16h15.8829106z" fill="none" stroke-width=".351713"/><path d="m9.4156899 1.671127 6.6324871 6.061082.173347.138375.141457-.0605-.130661-.268876-.09729-.07887-6.7193461-5.497131-6.7945425 5.557505-.083262.05087-.07594.2495.1518805.04562.1347568-.108876z" fill="none" stroke-width=".351713"/><path d="m9.3744871-1.6076-7.6678761 6.389896-.2189197 2.529621.7008246.728721s7.1512267-6.056639 7.2271677-6.11689l6.8797034 6.192891.665253-.820387-.566212-2.510363-6.9787444-6.430364z" fill="#ef2929" stroke="#a40000" stroke-width=".351713"/><g fill="none"><path d="m1.8442977 4.867178-.1021678 2.338094 7.6460415-6.444642-.0246445-2.080386z" opacity=".409091"/><path d="m9.4283103.679761.034853-2.061949 6.7733237 6.231261.522766 2.294831z" opacity=".136364"/><path d="m10.345882 7.37589h3.167827c.270034 0 .487428.218995.487428.491021l-.0028 3.205027c0 .272026-.208966.446896-.479001.446896h-3.173464c-.270036 0-.4874281-.218996-.4874281-.491021v-3.160902c0-.272026.2173921-.491021.4874281-.491021z" opacity=".318182" stroke="#fff" stroke-width=".351713"/></g><rect fill="#3465a4" height="3.635764" rx=".138607" ry=".139148" stroke="#757575" stroke-linecap="square" stroke-width=".364236" width="3.635764" x="9.487725" y="7.917691"/><path d="m8.1156909 7.9254888v5.6201672h-3.5517568l-.0684107-5.6201672z" style="clip-rule:evenodd;fill:#d3d7cf;fill-rule:evenodd;stroke:#757575;stroke-width:.379833;stroke-linecap:round"/></g></svg>

<?xml version="1.0" encoding="UTF-8" standalone="no"?>
<svg
   xmlns:dc="http://purl.org/dc/elements/1.1/"
   xmlns:cc="http://creativecommons.org/ns#"
   xmlns:rdf="http://www.w3.org/1999/02/22-rdf-syntax-ns#"
   xmlns:svg="http://www.w3.org/2000/svg"
   xmlns="http://www.w3.org/2000/svg"
   xmlns:sodipodi="http://sodipodi.sourceforge.net/DTD/sodipodi-0.dtd"
   xmlns:inkscape="http://www.inkscape.org/namespaces/inkscape"
   width="16"
   height="16"
   overflow="visible"
   enable-background="new 0 0 128 129.396"
   xml:space="preserve"
   id="svg2"
   sodipodi:version="0.32"
   inkscape:version="0.92pre1 unknown"
   sodipodi:docname="gimp-home.svg"
   version="1.0"
   inkscape:output_extension="org.inkscape.output.svg.inkscape"
   viewBox="0 0 16 16"
   style="overflow:visible"><metadata
     id="metadata367"><rdf:RDF><cc:Work
         rdf:about=""><dc:format>image/svg+xml</dc:format><dc:type
           rdf:resource="http://purl.org/dc/dcmitype/StillImage" /><cc:license
           rdf:resource="http://creativecommons.org/publicdomain/zero/1.0/" /><dc:title></dc:title><dc:creator><cc:Agent><dc:title /></cc:Agent></dc:creator><dc:source /><dc:subject><rdf:Bag /></dc:subject></cc:Work><cc:License
         rdf:about="http://creativecommons.org/publicdomain/zero/1.0/"><cc:permits
           rdf:resource="http://creativecommons.org/ns#Reproduction" /><cc:permits
           rdf:resource="http://creativecommons.org/ns#Distribution" /><cc:permits
           rdf:resource="http://creativecommons.org/ns#DerivativeWorks" /></cc:License></rdf:RDF></metadata><defs
     id="defs365" /><sodipodi:namedview
     inkscape:cy="6.0308713"
     inkscape:cx="13.614281"
     inkscape:zoom="8.7741578"
     inkscape:window-height="1016"
     inkscape:window-width="1920"
     inkscape:pageshadow="2"
     inkscape:pageopacity="0.0"
     borderopacity="0.21568627"
     bordercolor="#666666"
     pagecolor="#ffffff"
     id="base"
     inkscape:showpageshadow="false"
     inkscape:window-x="0"
     inkscape:window-y="27"
     inkscape:current-layer="svg2"
     fill="#555753"
     showgrid="true"
     stroke="#a40000"
     showguides="true"
     inkscape:guide-bbox="true"
     inkscape:snap-global="false"
     inkscape:window-maximized="1"><inkscape:grid
       type="xygrid"
       id="grid4341" /></sodipodi:namedview><g
     style="display:inline"
     id="g5022"
     transform="matrix(0.00756283,0,0,0.00656401,15.959766,12.288985)" /><g
     id="g4339"
     transform="translate(-1.3056073,2.264427)"><path
       inkscape:connector-curvature="0"
       sodipodi:nodetypes="ccccccccc"
       id="rect1512"
       d="m 8.5121608,0.68080448 h 1.9879612 c 0.280213,0 4.805485,5.73497232 4.805485,6.05476852 l -0.02448,6.174769 c 0,0.319798 -0.126383,0.648944 -0.406596,0.648944 l -10.8914593,0.0046 c -0.2802131,0 -0.5057994,-0.257454 -0.5057994,-0.577252 l 0.018847,-6.5337308 c 0,-0.3197962 4.7358313,-5.77212272 5.0160435,-5.77212272 z"
       style="color:#000000;display:inline;overflow:visible;visibility:visible;fill:#eeeeec;fill-opacity:1;fill-rule:nonzero;stroke:#757575;stroke-width:0.34332609;stroke-linecap:butt;stroke-linejoin:miter;stroke-miterlimit:4;stroke-dashoffset:0;stroke-opacity:1;marker:none;marker-start:none;marker-mid:none;marker-end:none" /><path
       inkscape:connector-curvature="0"
       d="M 17.305765,13.735573 H 1.4228544 v -16 H 17.305765 Z"
       id="path5"
       style="fill:none;stroke-width:0.35171282" /><path
       inkscape:connector-curvature="0"
       sodipodi:nodetypes="ccccccccccccc"
       style="fill:url(#XMLID_39_);stroke-width:0.35171282"
       id="path342"
       d="m 9.4156899,1.671127 6.6324871,6.061082 0.173347,0.138375 0.141457,-0.0605 L 16.23232,7.541208 16.13503,7.462338 9.4156839,1.965207 2.6211414,7.522712 l -0.083262,0.05087 -0.07594,0.2495 0.1518805,0.04562 0.1347568,-0.108876 z" /><path
       inkscape:connector-curvature="0"
       sodipodi:nodetypes="cccccccccc"
       d="M 9.3744871,-1.6076 1.706611,4.782296 1.4876913,7.311917 2.1885159,8.040638 c 0,0 7.1512267,-6.056639 7.2271677,-6.11689 L 16.295387,8.116639 16.96064,7.296252 16.394428,4.785889 9.4156836,-1.644475 Z"
       id="path362"
       style="fill:#ef2929;stroke:#a40000;stroke-width:0.35171282" /><path
       inkscape:connector-curvature="0"
       sodipodi:nodetypes="ccccc"
       id="path1536"
       d="M 1.8442977,4.867178 1.7421299,7.205272 9.3881714,0.76063 9.3635269,-1.319756 Z"
       style="color:#000000;display:inline;overflow:visible;visibility:visible;opacity:0.40909089;fill:#ffffff;fill-opacity:0;fill-rule:nonzero;stroke:none;stroke-width:0.35171282;stroke-linecap:butt;stroke-linejoin:miter;stroke-miterlimit:4;stroke-dasharray:none;stroke-dashoffset:0;stroke-opacity:1;marker:none;marker-start:none;marker-mid:none;marker-end:none" /><path
       inkscape:connector-curvature="0"
       style="color:#000000;display:inline;overflow:visible;visibility:visible;opacity:0.13636367;fill:#000000;fill-opacity:0;fill-rule:nonzero;stroke:none;stroke-width:0.35171282;stroke-linecap:butt;stroke-linejoin:miter;stroke-miterlimit:4;stroke-dasharray:none;stroke-dashoffset:0;stroke-opacity:1;marker:none;marker-start:none;marker-mid:none;marker-end:none"
       d="m 9.4283103,0.679761 0.034853,-2.061949 6.7733237,6.231261 0.522766,2.294831 z"
       id="path2337"
       sodipodi:nodetypes="ccccc" /><path
       inkscape:connector-curvature="0"
       sodipodi:nodetypes="ccccccccc"
       id="rect2361"
       d="m 10.345882,7.37589 h 3.167827 c 0.270034,0 0.487428,0.218995 0.487428,0.491021 l -0.0028,3.205027 c 0,0.272026 -0.208966,0.446896 -0.479001,0.446896 h -3.173464 c -0.270036,0 -0.4874281,-0.218996 -0.4874281,-0.491021 V 7.866911 c 0,-0.272026 0.2173921,-0.491021 0.4874281,-0.491021 z"
       style="color:#000000;display:inline;overflow:visible;visibility:visible;opacity:0.31818183;fill:none;fill-opacity:1;fill-rule:nonzero;stroke:#ffffff;stroke-width:0.35171258;stroke-linecap:butt;stroke-linejoin:miter;stroke-miterlimit:4;stroke-dashoffset:0;stroke-opacity:1;marker:none;marker-start:none;marker-mid:none;marker-end:none" /><rect
       ry="0.13914761"
       rx="0.1386067"
       y="7.9176912"
       x="9.4877253"
       height="3.6357636"
       width="3.6357639"
       id="rect3263"
       style="color:#000000;display:inline;overflow:visible;visibility:visible;opacity:1;fill:#3465a4;fill-opacity:1;fill-rule:nonzero;stroke:#757575;stroke-width:0.36423633;stroke-linecap:square;stroke-linejoin:miter;stroke-miterlimit:4;stroke-dasharray:none;stroke-dashoffset:0;stroke-opacity:1;marker:none;marker-start:none;marker-mid:none;marker-end:none" /><path
       inkscape:connector-curvature="0"
       sodipodi:nodetypes="ccccc"
       style="clip-rule:evenodd;overflow:visible;fill:#d3d7cf;fill-opacity:1;fill-rule:evenodd;stroke:#757575;stroke-width:0.3798328;stroke-linecap:round;stroke-linejoin:miter;stroke-miterlimit:4;stroke-dasharray:none;stroke-opacity:1"
       id="path188-3"
       d="M 8.1156909,7.9254888 V 13.545656 H 4.5639341 L 4.4955234,7.9254888 Z" /></g></svg>
